X:612
T:Scatter the Mud II
M:6/8
L:1/8
K:G
|:"Am"Ace d2 c|Ace dec|Ace d2 c|"Em"AGE GEG|"Am"Ace d2 c|Ace dec|
AGE GAd|"Em"ged e3:||:"Am"eaa "Em"egg|"G"dBA ABd|"Am"eaa "Em"egg|"G"dBG GBd|
"Am"eaf "Em"g2 e|"G"dBA "Em"AGE|"G"GAB dge|1 dBA "Am"A2 e:|2 dBA "Am"A3||
